X: 1
T: Mary Bain's Wedding
T: John Bain's Sister's Wedding
T: My Ain Hoose
B: Kerr 3
R: jig
Z: 2011 John Chambers <jc:trillian.mit.edu>
M: 6/8
L: 1/8
K: Am
e \
| "Am"c2A AAA | "Dm"agf "E7"e2d | "Am"c2A AAA | "E7"d2c B2d \
| "Am"c2A AAA | "Dm"agf "E7"e2d | "Am"c2A "G"BGB | "Am"A3 A2 :|
|: B \
| "Am"cde efe | "Am"efe edc | "E7"Bcd ded | "E7"ded dcB \
| "Am"cde efe | "Am"efe edc | "E7"e3  e2d | "Am"cAA A2 :|
